svg/Pictogram/pictograms-aem-0018-auger.svg

<?xml version="1.0" encoding="ISO-8859-1" standalone="yes"?>
<svg height="304.014" width="304.015">
  <metadata>
    <rdf:RDF xmlns:cc="http://web.resource.org/cc/" xmlns:dc="http://purl.org/dc/elements/1.1/" xmlns:rdf="http://www.w3.org/1999/02/22-rdf-syntax-ns#">
      <cc:Work rdf:about="">
        <dc:title></dc:title>
        <dc:description></dc:description>
        <dc:subject>
          <rdf:Bag>
            <rdf:li></rdf:li>
          </rdf:Bag>
        </dc:subject>
        <dc:publisher>
          <cc:Agent rdf:about="http://www.unece.org/trans/danger/publi/ghs/pictograms.html">
            <dc:title>Source: UNECE GHS of Classification and Labeling of Chemicals, Source: AEM Pictorial Database, Source: AEM Pictorial Database, Source: AEM Pictorial Database, Source: AEM Pictorial Database</dc:title>
          </cc:Agent>
        </dc:publisher>
        <dc:creator>
          <cc:Agent>
            <dc:title></dc:title>
          </cc:Agent>
        </dc:creator>
        <dc:rights>
          <cc:Agent>
            <dc:title></dc:title>
          </cc:Agent>
        </dc:rights>
        <dc:date></dc:date>
        <dc:format>image/svg+xml</dc:format>
        <dc:type rdf:resource="http://purl.org/dc/dcmitype/StillImage"/>
        <cc:license rdf:resource="http://en.wikipedia.org/wiki/Public_domain"/>
        <dc:language>en</dc:language>
      </cc:Work>
    </rdf:RDF>
  </metadata>
  <defs><marker id="ArrowEnd" markerHeight="3" markerUnits="strokeWidth" markerWidth="4" orient="auto" refX="0" refY="5" viewBox="0 0 10 10"><path d="M 0 0 L 10 5 L 0 10 z"/></marker><marker id="ArrowStart" markerHeight="3" markerUnits="strokeWidth" markerWidth="4" orient="auto" refX="10" refY="5" viewBox="0 0 10 10"><path d="M 10 0 L 0 5 L 10 10 z"/></marker> </defs>
  <g id="g2958" transform="matrix(1.3532768,0,0,1.3532781,-53.207834,-52.192858)">
    <path d="M 78.2724 196.819C 79.8904 186.905 81.7064 178.87 85.5934 178.87C 89.4174 178.87 100.237 209.327 100.237 209.327L 121.038 209.327C 121.038 209.327 119.288 225.784 110.218 225.784C 110.218 225.784 101.456 227.592 95.8314 210.362C 91.2964 196.475 91.1014 196.885 91.1014 196.885L 78.2724 196.819" style="stroke:none; fill-rule:evenodd; fill:#000000"/>
    <path d="M 169.507 196.819C 171.128 186.905 172.94 178.87 176.831 178.87C 180.655 178.87 191.476 209.327 191.476 209.327L 212.276 209.327C 212.276 209.327 210.526 225.784 201.456 225.784C 201.456 225.784 192.694 227.592 187.069 210.362C 182.534 196.475 182.339 196.885 182.339 196.885L 169.511 196.819" style="stroke:none; fill-rule:evenodd; fill:#000000"/>
    <path d="M 252.276 223.471C 250.882 224.87 249.147 225.788 247.011 225.788C 247.011 225.788 238.249 227.592 232.624 210.366C 228.089 196.479 227.894 196.885 227.894 196.885L 215.065 196.819C 216.683 186.905 218.499 178.87 222.386 178.87C 226.21 178.87 237.03 209.327 237.03 209.327L 252.257 209.327L 252.276 223.471" style="stroke:none; fill-rule:evenodd; fill:#000000"/>
    <path d="M 50.6794 198.112C 53.1404 204.26 55.0074 209.327 55.0074 209.327L 75.8084 209.327C 75.8084 209.327 74.0584 225.784 64.9874 225.784C 64.9874 225.784 56.2924 226.62 50.6674 209.389L 50.6794 198.112" style="stroke:none; fill-rule:evenodd; fill:#000000"/>
    <path d="M 237.401 207.901L 252.257 207.901L 252.257 198.049L 233.71 198.049L 237.401 207.901" style="stroke:none; fill-rule:evenodd; fill:#000000"/>
    <path d="M 51.6874 198.053L 55.3824 207.901L 94.0464 207.901L 90.6594 198.053L 51.6874 198.053" style="stroke:none; fill-rule:evenodd; fill:#000000"/>
    <path d="M 142.585 198.053L 146.276 207.901L 185.284 207.901L 181.897 198.053L 142.585 198.053" style="stroke:none; fill-rule:evenodd; fill:#000000"/>
    <path d="M 136.323 198.053L 96.9174 198.053L 100.612 207.901L 139.71 207.901L 136.323 198.053" style="stroke:none; fill-rule:evenodd; fill:#000000"/>
    <path d="M 188.155 198.053L 191.847 207.901L 230.839 207.901L 227.452 198.053L 188.155 198.053" style="stroke:none; fill-rule:evenodd; fill:#000000"/>
    <path d="M 145.854 209.198C 145.854 209.198 135.034 178.741 131.21 178.741C 127.323 178.741 125.507 186.776 123.89 196.69L 136.718 196.756C 136.718 196.756 136.913 196.346 141.448 210.233C 141.823 211.381 142.214 212.436 142.612 213.42L 129.983 215.217L 132.358 231.854C 132.538 233.124 128.011 241.522 120.796 243.655C 116.132 245.034 113.843 246.971 114.374 250.737L 131.179 248.366L 138.976 243.581L 139.48 247.147L 151.03 245.518L 150.507 241.811C 150.507 241.811 151.585 238.643 151.128 235.694C 150.55 231.971 148.429 228.573 148.425 228.549L 147.468 221.647C 151.812 226.479 155.835 225.655 155.835 225.655C 164.909 225.655 166.659 209.198 166.659 209.198L 145.858 209.198" style="stroke:none; fill-rule:evenodd; fill:#000000"/>
    <path d="M 236.491 86.5264C 236.655 85.9874 236.878 85.4564 237.155 84.9404L 253.347 56.0304L 253.319 90.3664L 252.823 91.2374C 252.671 91.7064 252.476 92.1704 252.23 92.6204L 236.226 122.018C 236.218 122.03 236.21 122.041 236.202 122.053C 236.179 122.1 236.163 122.147 236.14 122.19L 215.124 161.577C 214.675 162.436 214.093 163.178 213.425 163.803C 212.425 164.834 211.151 165.627 209.663 166.041L 156.667 178.151L 168.038 194.331L 148.011 194.37L 136.202 178.084C 134.483 175.932 134.007 173.194 134.659 170.721C 134.675 170.647 134.694 170.577 134.714 170.502C 134.745 170.397 134.78 170.291 134.815 170.186C 135.679 167.506 137.862 165.323 140.8 164.608L 185.753 154.35C 185.733 154.319 185.718 154.288 185.698 154.256L 155.175 129.014L 138.761 129.049L 138.761 129.221L 121.796 129.182C 120.097 129.592 119.073 130.061 115.312 130.096C 112.323 130.124 109.538 128.987 109.538 128.987L 104.175 129.034L 104.163 117.37L 109.452 117.323L 105.843 108.916L 105.921 91.9444C 109.722 91.9594 111.312 94.5064 112.003 99.3194C 113.069 106.768 120.73 112.459 122.007 112.272L 138.815 112.323L 138.815 112.334L 157.823 112.303C 160.448 112.143 162.862 113.217 164.511 115.022L 190.534 136.557L 201.253 116.475L 181.499 94.9834L 155.792 67.2994C 152.663 63.8974 152.886 58.6044 156.288 55.4754C 159.69 52.3504 164.987 52.5734 168.112 55.9754L 193.706 83.5344C 193.714 83.5384 193.718 83.5454 193.722 83.5494L 204.386 95.0574C 207.792 98.3974 212.569 100.487 217.718 100.487C 224.507 100.487 230.534 96.7484 233.862 91.3704L 236.491 86.5264" style="stroke:none; fill-rule:evenodd; fill:#000000"/>
    <path d="M 217.718 96.4324C 225.94 96.4324 232.608 89.7644 232.608 81.5414C 232.608 73.3194 225.944 66.6514 217.718 66.6514C 209.495 66.6514 202.827 73.3194 202.827 81.5414C 202.827 89.7644 209.495 96.4324 217.718 96.4324" style="stroke:none; fill-rule:evenodd; fill:#000000"/>
    <path d="M 29.6204 265.393L 2.62042 265.393" style="stroke:#000000; stroke-width:0.5; fill:none"/>
    <path d="M 38.6204 274.393L 38.6204 301.393" style="stroke:#000000; stroke-width:0.5; fill:none"/>
    <path d="M 29.6204 38.6204L 2.62042 38.6204" style="stroke:#000000; stroke-width:0.5; fill:none"/>
    <path d="M 38.6204 29.6204L 38.6204 2.62042" style="stroke:#000000; stroke-width:0.5; fill:none"/>
    <path d="M 274.394 38.6204L 301.394 38.6204" style="stroke:#000000; stroke-width:0.5; fill:none"/>
    <path d="M 265.394 29.6204L 265.394 2.62042" style="stroke:#000000; stroke-width:0.5; fill:none"/>
    <path d="M 274.394 265.393L 301.394 265.393" style="stroke:#000000; stroke-width:0.5; fill:none"/>
    <path d="M 265.394 274.393L 265.394 301.393" style="stroke:#000000; stroke-width:0.5; fill:none"/>
  </g>
</svg>

<svg viewBox="0 0 304.01 304.01"><g transform="matrix(1.35328 0 0 1.35328-53.21-52.19)" fill-rule="evenodd"><path d="m78.27 196.82c1.618-9.914 3.434-17.949 7.321-17.949 3.824 0 14.644 30.457 14.644 30.457h20.801c0 0-1.75 16.457-10.82 16.457 0 0-8.762 1.808-14.387-15.422-4.535-13.887-4.73-13.477-4.73-13.477l-12.829-.066"/><path d="m169.51 196.82c1.621-9.914 3.433-17.949 7.324-17.949 3.824 0 14.645 30.457 14.645 30.457h20.8c0 0-1.75 16.457-10.82 16.457 0 0-8.762 1.808-14.387-15.422-4.535-13.887-4.73-13.477-4.73-13.477l-12.828-.066"/><path d="m252.28 223.47c-1.394 1.399-3.129 2.317-5.265 2.317 0 0-8.762 1.804-14.387-15.422-4.535-13.887-4.73-13.481-4.73-13.481l-12.829-.066c1.618-9.914 3.434-17.949 7.321-17.949 3.824 0 14.644 30.457 14.644 30.457h15.227l.019 14.14"/><path d="m50.679 198.11c2.461 6.148 4.328 11.215 4.328 11.215h20.801c0 0-1.75 16.457-10.821 16.457 0 0-8.695.836-14.32-16.395l.012-11.277"/><path d="m237.4 207.9h14.856v-9.852h-18.547l3.691 9.852"/><path d="m51.687 198.05l3.695 9.848h38.664l-3.387-9.848h-38.972"/><path d="m142.59 198.05l3.691 9.848h39.01l-3.387-9.848h-39.31"/><path d="m136.32 198.05h-39.41l3.695 9.848h39.1l-3.387-9.848"/><path d="m188.16 198.05l3.692 9.848h38.992l-3.387-9.848h-39.3"/><path d="m145.85 209.2c0 0-10.82-30.457-14.644-30.457-3.887 0-5.703 8.03-7.32 17.949l12.828.066c0 0 .195-.41 4.73 13.477.375 1.148.766 2.203 1.164 3.187l-12.629 1.797 2.375 16.637c.18 1.27-4.347 9.668-11.562 11.801-4.664 1.379-6.953 3.316-6.422 7.082l16.805-2.371 7.797-4.785.504 3.566 11.55-1.629-.523-3.707c0 0 1.078-3.168.621-6.117-.578-3.723-2.699-7.121-2.703-7.145l-.957-6.902c4.344 4.832 8.367 4.01 8.367 4.01 9.07 0 10.824-16.457 10.824-16.457h-20.801"/><path d="m236.49 86.53c.164-.539.387-1.07.664-1.586l16.192-28.91-.028 34.34-.496.871c-.152.469-.347.933-.593 1.383l-16 29.398c-.008.012-.016.023-.024.035-.023.047-.039.094-.062.137l-21.02 39.39c-.449.859-1.031 1.601-1.699 2.226-1 1.031-2.274 1.824-3.762 2.238l-52.996 12.11 11.371 16.18-20.03.039-11.809-16.286c-1.719-2.152-2.195-4.89-1.543-7.363.016-.074.035-.144.055-.219.031-.105.066-.211.101-.316.864-2.68 3.047-4.863 5.985-5.578l44.953-10.258c-.02-.031-.035-.062-.055-.094l-30.523-25.24-16.414.035v.172l-16.965-.039c-1.699.41-2.723.879-6.484.914-2.989.028-5.774-1.109-5.774-1.109l-5.363.047-.012-11.664 5.289-.047-3.609-8.407.078-16.972c3.801.015 5.391 2.562 6.082 7.375 1.066 7.449 8.727 13.14 10 12.953l16.808.051v.011l19.01-.031c2.625-.16 5.04.914 6.688 2.719l26.02 21.535 10.719-20.08-19.754-21.492-25.707-27.684c-3.129-3.402-2.906-8.695.496-11.824 3.402-3.125 8.699-2.902 11.824.5l25.594 27.559c.008.004.012.011.016.015l10.664 11.508c3.406 3.34 8.183 5.43 13.332 5.43 6.789 0 12.816-3.739 16.14-9.117l2.629-4.844"/><path d="m217.72 96.43c8.222 0 14.89-6.668 14.89-14.891 0-8.222-6.664-14.89-14.89-14.89-8.223 0-14.891 6.668-14.891 14.89 0 8.223 6.668 14.891 14.891 14.891"/></g></svg>
